<?xml version="1.0" encoding="UTF-8"?>
<map version="1.10" tiledversion="1.10.2" orientation="orthogonal" renderorder="right-down" width="40" height="30" tilewidth="16" tileheight="16" infinite="0" nextlayerid="6" nextobjectid="18">
 <editorsettings>
  <export target="level1.json" format="json"/>
 </editorsettings>
 <tileset firstgid="1" name="tile" tilewidth="16" tileheight="16" tilecount="36" columns="18">
  <image source="tile.png" trans="000000" width="288" height="32"/>
  <tile id="2">
   <properties>
    <property name="collides" type="bool" value="true"/>
   </properties>
  </tile>
  <tile id="3">
   <properties>
    <property name="collides" type="bool" value="true"/>
   </properties>
  </tile>
  <tile id="6">
   <properties>
    <property name="collides" type="bool" value="true"/>
   </properties>
  </tile>
  <tile id="7">
   <properties>
    <property name="collides" type="bool" value="true"/>
   </properties>
  </tile>
  <tile id="8">
   <properties>
    <property name="collides" type="bool" value="true"/>
   </properties>
  </tile>
  <tile id="9">
   <properties>
    <property name="collides" type="bool" value="true"/>
   </properties>
  </tile>
  <tile id="10">
   <properties>
    <property name="collides" type="bool" value="true"/>
   </properties>
  </tile>
  <tile id="11">
   <properties>
    <property name="collides" type="bool" value="true"/>
   </properties>
  </tile>
  <tile id="12">
   <properties>
    <property name="collides" type="bool" value="true"/>
   </properties>
  </tile>
  <tile id="13">
   <properties>
    <property name="collides" type="bool" value="true"/>
   </properties>
  </tile>
  <tile id="20">
   <properties>
    <property name="collides" type="bool" value="true"/>
   </properties>
  </tile>
  <tile id="21">
   <properties>
    <property name="collides" type="bool" value="true"/>
   </properties>
  </tile>
  <tile id="24">
   <properties>
    <property name="collides" type="bool" value="true"/>
   </properties>
  </tile>
  <tile id="25">
   <properties>
    <property name="collides" type="bool" value="true"/>
   </properties>
  </tile>
  <tile id="26">
   <properties>
    <property name="collides" type="bool" value="true"/>
   </properties>
  </tile>
  <tile id="27">
   <properties>
    <property name="collides" type="bool" value="true"/>
   </properties>
  </tile>
  <tile id="28">
   <properties>
    <property name="collides" type="bool" value="true"/>
   </properties>
  </tile>
  <tile id="29">
   <properties>
    <property name="collides" type="bool" value="true"/>
   </properties>
  </tile>
  <tile id="30">
   <properties>
    <property name="collides" type="bool" value="true"/>
   </properties>
  </tile>
  <tile id="31">
   <properties>
    <property name="collides" type="bool" value="true"/>
   </properties>
  </tile>
 </tileset>
 <tileset firstgid="37" name="item" tilewidth="16" tileheight="16" tilecount="4" columns="2">
  <image source="item.png" trans="000000" width="32" height="32"/>
 </tileset>
 <layer id="1" name="bgLayer" width="40" height="30">
  <data encoding="csv">
1,2,1,2,1,2,1,2,1,2,1,2,1,2,1,2,1,2,1,2,1,2,1,2,1,2,1,2,1,2,1,2,1,2,1,2,1,2,1,2,
19,20,19,20,19,20,19,20,19,20,19,20,19,20,19,20,19,20,19,20,19,20,19,20,19,20,19,20,19,20,19,20,19,20,19,20,19,20,19,20,
1,2,1,2,1,2,1,2,1,2,1,2,1,2,1,2,1,2,1,2,1,2,1,2,1,2,1,2,1,2,1,2,1,2,1,2,1,2,1,2,
19,20,19,20,19,20,19,20,19,20,19,20,19,20,19,20,19,20,19,20,19,20,19,20,19,20,19,20,19,20,19,20,19,20,19,20,19,20,19,20,
1,2,1,2,1,2,1,2,1,2,1,2,1,2,1,2,1,2,1,2,1,2,1,2,1,2,1,2,1,2,1,2,1,2,1,2,1,2,1,2,
19,20,19,20,19,20,19,20,19,20,19,20,19,20,19,20,19,20,19,20,19,20,19,20,19,20,19,20,19,20,19,20,19,20,19,20,19,20,19,20,
1,2,1,2,1,2,1,2,1,2,1,2,1,2,1,2,1,2,1,2,1,2,1,2,1,2,1,2,1,2,1,2,1,2,1,2,1,2,1,2,
19,20,19,20,19,20,19,20,19,20,19,20,19,20,19,20,19,20,19,20,19,20,19,20,19,20,19,20,19,20,19,20,19,20,19,20,19,20,19,20,
1,2,1,2,1,2,1,2,1,2,1,2,1,2,1,2,1,2,1,2,1,2,1,2,1,2,1,2,1,2,1,2,1,2,1,2,1,2,1,2,
19,20,19,20,19,20,19,20,19,20,19,20,19,20,19,20,19,20,19,20,19,20,19,20,19,20,19,20,19,20,19,20,19,20,19,20,19,20,19,20,
1,2,1,2,1,2,1,2,1,2,1,2,1,2,1,2,1,2,1,2,1,2,1,2,1,2,1,2,1,2,1,2,1,2,1,2,1,2,1,2,
19,20,19,20,19,20,19,20,19,20,19,20,19,20,19,20,19,20,19,20,19,20,19,20,19,20,19,20,19,20,19,20,19,20,19,20,19,20,19,20,
1,2,1,2,1,2,1,2,1,2,1,2,1,2,1,2,1,2,1,2,1,2,1,2,1,2,1,2,1,2,1,2,1,2,1,2,1,2,1,2,
19,20,19,20,19,20,19,20,19,20,19,20,19,20,19,20,19,20,19,20,19,20,19,20,19,20,19,20,19,20,19,20,19,20,19,20,19,20,19,20,
1,2,1,2,1,2,1,2,1,2,1,2,1,2,1,2,1,2,1,2,1,2,1,2,1,2,1,2,1,2,1,2,1,2,1,2,1,2,1,2,
19,20,19,20,19,20,19,20,19,20,19,20,19,20,19,20,19,20,19,20,19,20,19,20,19,20,19,20,19,20,19,20,19,20,19,20,19,20,19,20,
1,2,1,2,1,2,1,2,1,2,1,2,1,2,1,2,1,2,1,2,1,2,1,2,1,2,1,2,1,2,1,2,1,2,1,2,1,2,1,2,
19,20,19,20,19,20,19,20,19,20,19,20,19,20,19,20,19,20,19,20,19,20,19,20,19,20,19,20,19,20,19,20,19,20,19,20,19,20,19,20,
1,2,1,2,1,2,1,2,1,2,1,2,1,2,1,2,1,2,1,2,1,2,1,2,1,2,1,2,1,2,1,2,1,2,1,2,1,2,1,2,
19,20,19,20,19,20,19,20,19,20,19,20,19,20,19,20,19,20,19,20,19,20,19,20,19,20,19,20,19,20,19,20,19,20,19,20,19,20,19,20,
1,2,1,2,1,2,1,2,1,2,1,2,1,2,1,2,1,2,1,2,1,2,1,2,1,2,1,2,1,2,1,2,1,2,1,2,1,2,1,2,
19,20,19,20,19,20,19,20,19,20,19,20,19,20,19,20,19,20,19,20,19,20,19,20,19,20,19,20,19,20,19,20,19,20,19,20,19,20,19,20,
1,2,1,2,1,2,1,2,1,2,1,2,1,2,1,2,1,2,1,2,1,2,1,2,1,2,1,2,1,2,1,2,1,2,1,2,1,2,1,2,
19,20,19,20,19,20,19,20,19,20,19,20,19,20,19,20,19,20,19,20,19,20,19,20,19,20,19,20,19,20,19,20,19,20,19,20,19,20,19,20,
1,2,1,2,1,2,1,2,1,2,1,2,1,2,1,2,1,2,1,2,1,2,1,2,1,2,1,2,1,2,1,2,1,2,1,2,1,2,1,2,
19,20,19,20,19,20,19,20,19,20,19,20,19,20,19,20,19,20,19,20,19,20,19,20,19,20,19,20,19,20,19,20,19,20,19,20,19,20,19,20,
1,2,1,2,1,2,1,2,1,2,1,2,1,2,1,2,1,2,1,2,1,2,1,2,1,2,1,2,1,2,1,2,1,2,1,2,1,2,1,2,
19,20,19,20,19,20,19,20,19,20,19,20,19,20,19,20,19,20,19,20,19,20,19,20,19,20,19,20,19,20,19,20,19,20,19,20,19,20,19,20,
1,2,1,2,1,2,1,2,1,2,1,2,1,2,1,2,1,2,1,2,1,2,1,2,1,2,1,2,1,2,1,2,1,2,1,2,1,2,1,2,
19,20,19,20,19,20,19,20,19,20,19,20,19,20,19,20,19,20,19,20,19,20,19,20,19,20,19,20,19,20,19,20,19,20,19,20,19,20,19,20
</data>
 </layer>
 <layer id="3" name="wallLayer" width="40" height="30">
  <properties>
   <property name="collides" type="bool" value="true"/>
  </properties>
  <data encoding="csv">
3,4,3,4,3,4,3,4,3,4,3,4,3,4,3,4,3,4,3,4,3,4,3,4,3,4,3,4,3,4,3,4,3,4,3,4,3,4,3,4,
21,22,21,22,21,22,21,22,21,22,21,22,21,22,21,22,21,22,21,22,21,22,21,22,21,22,21,22,21,22,21,22,21,22,21,22,21,22,21,22,
3,4,0,0,0,0,0,0,0,0,0,0,0,0,0,0,0,0,0,0,0,3,4,3,4,0,0,0,0,0,0,0,0,0,0,0,0,0,3,4,
21,22,0,0,0,0,0,0,0,0,0,0,0,0,0,0,0,0,0,0,0,21,22,21,22,0,0,0,0,0,0,0,0,0,0,0,0,0,21,22,
3,4,0,0,0,0,0,0,0,0,0,0,0,3,4,3,4,3,4,3,4,3,4,3,4,0,0,0,0,0,0,0,0,0,0,0,0,0,3,4,
21,22,0,0,0,0,0,0,0,0,0,0,0,21,22,21,22,21,22,21,22,21,22,21,22,0,0,0,0,0,0,0,0,0,0,0,0,0,21,22,
3,4,0,0,0,0,3,4,3,4,0,0,0,0,0,0,0,0,0,0,0,0,0,0,0,0,0,0,3,4,3,4,3,4,0,0,0,0,3,4,
21,22,0,0,0,0,21,22,21,22,0,0,0,0,0,0,0,0,0,0,0,0,0,0,0,0,0,0,21,22,21,22,21,22,0,0,0,0,21,22,
3,4,0,0,0,0,3,4,3,4,0,0,0,0,0,0,0,0,0,0,0,0,0,0,0,0,0,0,3,4,3,4,3,4,0,0,0,0,3,4,
21,22,0,0,0,0,21,22,21,22,21,3,0,0,0,0,0,0,0,0,0,0,0,0,0,0,4,22,21,22,21,22,21,22,0,0,0,0,21,22,
3,4,0,0,0,0,3,4,3,3,4,21,0,0,0,0,0,0,0,0,0,0,0,0,0,0,22,3,4,3,3,4,3,4,0,0,0,0,3,4,
21,22,0,0,0,0,3,4,21,3,4,21,22,21,22,21,22,21,22,21,22,21,22,21,22,21,22,21,22,21,21,22,21,22,0,0,0,0,21,22,
3,4,0,0,0,0,21,22,21,21,22,3,4,3,4,3,4,3,4,3,4,3,4,3,4,3,4,3,3,4,3,4,3,4,0,0,0,0,3,4,
21,22,0,0,0,0,0,0,0,0,3,21,0,0,0,0,0,0,0,0,22,3,0,0,0,0,0,0,0,0,0,0,0,0,0,0,0,0,21,22,
3,4,0,0,0,0,0,0,0,0,21,3,0,0,0,0,0,0,0,0,4,21,0,0,0,0,0,0,0,0,0,0,0,0,0,0,0,0,3,4,
21,22,0,0,0,0,0,0,0,0,3,21,0,0,0,0,0,0,0,0,22,3,0,0,0,0,0,0,0,0,0,0,0,0,0,0,0,0,21,22,
3,4,0,0,0,0,0,0,0,0,21,3,0,0,0,3,4,0,0,0,4,21,0,0,0,0,0,0,0,0,0,0,0,0,0,0,0,0,3,4,
21,22,0,0,0,0,0,0,0,0,0,0,0,0,0,21,22,0,0,0,0,0,0,0,0,3,3,3,4,3,0,0,0,0,0,0,0,0,21,22,
3,4,0,0,0,0,0,0,0,0,0,0,0,0,0,3,4,0,0,0,0,0,0,0,0,21,3,21,22,21,0,0,0,0,0,0,0,0,3,4,
21,22,0,0,0,0,0,0,0,0,0,0,0,0,0,21,22,0,0,0,0,0,0,0,0,21,21,3,0,0,0,0,0,0,0,0,0,3,4,22,
3,4,0,0,0,0,0,0,0,0,3,3,4,3,4,3,4,3,4,3,4,3,4,3,4,3,4,3,0,0,0,0,0,0,0,0,3,21,22,4,
21,3,4,0,0,0,0,0,0,0,21,21,22,21,22,21,22,21,22,21,22,21,22,21,22,21,22,21,0,0,0,0,0,0,0,3,4,22,21,22,
3,21,22,4,0,0,0,0,0,0,3,3,4,3,4,0,0,0,0,0,0,0,0,0,0,0,0,0,0,0,0,0,0,0,3,21,22,4,3,4,
21,22,3,3,4,0,0,0,0,0,21,21,22,21,22,0,0,0,0,0,0,0,0,0,0,0,0,0,0,0,0,0,0,3,4,22,21,22,21,22,
3,4,21,21,22,4,0,0,0,0,0,0,0,0,0,0,0,0,0,0,0,0,0,0,0,0,0,0,0,0,0,0,3,21,22,4,3,4,3,4,
21,22,3,21,3,4,0,0,0,0,0,0,0,0,0,0,0,0,0,0,0,0,0,0,0,0,0,0,0,0,0,3,4,22,21,22,21,22,21,22,
3,4,3,4,4,4,0,0,0,0,0,0,0,0,0,0,0,0,0,0,0,0,0,0,0,0,0,0,0,0,4,21,22,3,4,3,3,4,3,4,
21,22,21,22,22,22,0,0,0,0,0,0,0,0,0,0,0,0,0,0,0,0,0,0,0,0,0,0,0,3,4,21,22,21,22,21,21,22,21,22,
3,4,3,4,3,4,3,4,3,4,3,4,3,4,3,4,3,4,3,4,3,4,3,4,3,4,3,4,3,21,22,4,3,4,3,4,3,4,3,4,
21,22,21,22,21,22,21,22,21,22,21,22,21,22,21,22,21,22,21,22,21,22,21,22,21,22,21,22,21,22,21,22,21,22,21,22,21,22,21,22
</data>
 </layer>
 <layer id="4" name="itemLayer" width="40" height="30">
  <data encoding="csv">
0,0,0,0,0,0,0,0,0,0,0,0,0,0,0,0,0,0,0,0,0,0,0,0,0,0,0,0,0,0,0,0,0,0,0,0,0,0,0,0,
0,0,0,0,0,0,0,0,0,0,0,0,0,0,0,0,0,0,0,0,0,0,0,0,0,0,0,0,0,0,0,0,0,0,0,0,0,0,0,0,
0,0,0,0,0,0,0,0,0,0,0,0,0,0,0,0,0,0,0,7,8,0,0,0,0,0,0,0,0,0,0,0,0,0,0,0,0,0,0,0,
0,0,0,0,0,0,0,0,0,0,0,0,0,0,0,0,0,0,0,25,26,0,0,0,0,0,0,0,0,0,0,0,0,0,0,0,0,0,0,0,
0,0,0,0,0,0,0,0,0,0,0,0,0,0,0,0,0,0,0,0,0,0,0,0,0,0,0,0,0,0,0,0,0,0,0,0,0,0,0,0,
0,0,0,0,0,0,0,0,0,0,0,0,0,0,0,0,0,0,0,0,0,0,0,0,0,0,0,0,0,0,0,0,0,0,0,0,0,0,0,0,
0,0,0,0,0,0,0,0,0,0,0,0,0,0,0,0,0,0,0,0,0,0,0,0,0,0,0,0,0,0,0,0,0,0,0,0,0,0,0,0,
0,0,0,0,0,0,0,0,0,0,0,0,0,0,0,0,0,0,0,0,0,0,0,0,0,0,0,0,0,0,0,0,0,0,0,0,0,0,0,0,
0,0,0,0,0,0,0,0,0,0,0,0,0,0,0,0,0,0,0,0,0,0,0,0,0,0,0,0,0,0,0,0,0,0,0,0,0,0,0,0,
0,0,0,0,0,0,0,0,0,0,0,0,0,0,0,0,0,0,0,0,0,0,0,0,0,0,0,0,0,0,0,0,0,0,0,0,0,0,0,0,
0,0,0,0,0,0,0,0,0,0,0,0,0,0,0,0,0,0,0,0,0,0,0,0,0,0,0,0,0,0,0,0,0,0,0,0,0,0,0,0,
0,0,0,0,0,0,0,0,0,0,0,0,0,0,0,0,0,0,0,0,0,0,0,0,0,0,0,0,0,0,0,0,0,0,0,0,0,0,0,0,
0,0,0,0,0,0,0,0,0,0,0,0,0,0,0,0,0,0,0,0,0,0,0,0,0,0,0,0,0,0,0,0,0,0,0,0,0,0,0,0,
0,0,0,0,0,0,0,0,0,0,0,0,0,0,0,0,0,0,0,0,0,0,0,0,0,0,0,0,0,0,0,0,0,0,0,0,0,0,0,0,
0,0,0,0,0,0,0,0,0,0,0,0,0,0,0,0,0,0,0,0,0,0,0,0,0,0,0,0,0,0,0,0,0,0,0,0,0,0,0,0,
0,0,0,0,0,0,0,0,0,0,0,0,0,0,0,0,0,0,0,0,0,0,0,0,0,0,0,0,0,0,0,0,0,0,0,0,0,0,0,0,
0,0,0,0,0,0,0,0,0,0,0,0,0,0,0,0,0,0,0,0,0,0,0,0,0,0,0,0,0,0,0,0,0,0,0,0,0,0,0,0,
0,0,0,0,0,0,0,0,0,0,0,0,0,0,0,0,0,0,0,0,0,0,0,0,0,0,0,0,0,0,0,0,0,0,0,0,0,0,0,0,
0,0,0,0,0,0,0,0,0,0,0,0,0,0,0,0,0,0,0,0,0,0,0,0,0,0,0,0,0,0,0,0,0,0,0,0,0,0,0,0,
0,0,0,0,0,0,0,0,0,0,0,0,0,0,0,0,0,0,0,0,0,0,0,0,0,0,0,0,0,0,0,0,0,0,0,0,0,0,0,0,
0,0,0,0,0,0,0,0,0,0,0,0,0,0,0,0,0,0,0,0,0,0,0,0,0,0,0,0,0,0,0,0,0,0,0,0,0,0,0,0,
0,0,0,0,0,0,0,0,0,0,0,0,0,0,0,0,0,0,0,0,0,0,0,0,0,0,0,0,0,0,0,0,0,0,0,0,0,0,0,0,
0,0,0,0,0,0,0,0,0,0,0,0,0,0,0,0,0,0,0,0,0,0,0,0,0,0,0,0,0,0,0,0,0,0,0,0,0,0,0,0,
0,0,0,0,0,0,0,0,0,0,0,0,0,0,0,0,0,0,0,0,0,0,0,0,0,0,0,0,0,0,0,0,0,0,0,0,0,0,0,0,
0,0,0,0,0,0,0,0,0,0,0,0,0,0,0,0,0,0,0,0,0,0,0,0,0,0,0,0,0,0,0,0,0,0,0,0,0,0,0,0,
0,0,0,0,0,0,0,0,0,0,0,0,0,0,0,0,0,0,0,0,0,0,0,0,0,0,0,0,0,0,0,0,0,0,0,0,0,0,0,0,
0,0,0,0,0,0,0,0,0,0,0,0,0,0,0,0,0,0,0,0,0,0,0,0,0,0,0,0,0,0,0,0,0,0,0,0,0,0,0,0,
0,0,0,0,0,0,0,0,0,0,0,0,0,0,0,0,0,0,0,0,0,0,0,0,0,0,0,0,0,0,0,0,0,0,0,0,0,0,0,0,
0,0,0,0,0,0,0,0,0,0,0,0,0,0,0,0,0,0,0,0,0,0,0,0,0,0,0,0,0,0,0,0,0,0,0,0,0,0,0,0,
0,0,0,0,0,0,0,0,0,0,0,0,0,0,0,0,0,0,0,0,0,0,0,0,0,0,0,0,0,0,0,0,0,0,0,0,0,0,0,0
</data>
 </layer>
</map>
